img/dashicons-cloud.svg

<svg width="29" height="29" viewBox="0 0 29 29" fill="none" xmlns="http://www.w3.org/2000/svg">
<path d="M21.605 13.05C21.605 12.615 21.75 12.18 21.75 11.6C21.75 8.41005 19.14 5.80005 15.95 5.80005C13.63 5.80005 11.745 7.10505 10.73 8.99005C10.44 8.84505 9.86001 8.70005 9.42501 8.70005C7.39501 8.70005 5.80001 10.295 5.80001 12.325C5.80001 12.615 5.80001 12.905 5.94501 13.05C3.33501 13.485 1.45001 15.515 1.45001 18.125C1.45001 20.88 3.77001 23.2 6.52501 23.2H21.025C23.78 23.2 26.1 20.88 26.1 18.125C26.1 15.515 24.215 13.34 21.605 13.05Z" fill="white"/>
</svg>

<svg width="29" height="29" fill="none" xmlns="http://www.w3.org/2000/svg"><path d="M21.605 13.05c0-.435.145-.87.145-1.45 0-3.19-2.61-5.8-5.8-5.8-2.32 0-4.205 1.305-5.22 3.19-.29-.145-.87-.29-1.305-.29A3.59 3.59 0 005.8 12.325c0 .29 0 .58.145.725-2.61.435-4.495 2.465-4.495 5.075 0 2.755 2.32 5.075 5.075 5.075h14.5c2.755 0 5.075-2.32 5.075-5.075 0-2.61-1.885-4.785-4.495-5.075z" fill="#fff"/></svg>
